src/pos-icons/wifi-star.svg

<svg height="24" viewBox="0 0 24 24" width="24" xmlns="http://www.w3.org/2000/svg"><path d="m12 6c-3.4 0-6.5 1.1-9 3l-1.8-2.4c3-2.3 6.8-3.6 10.8-3.6s7.8 1.3 10.8 3.6l-1.8 2.4c-2.5-1.9-5.6-3-9-3m1 13c0-1.3.4-2.6 1.2-3.6-.7-.2-1.4-.4-2.2-.4-1.3 0-2.6.5-3.6 1.2l3.6 4.8 1-1.4c0-.2 0-.4 0-.6m3.8-5.6c.3-.1.7-.2 1.1-.3l1.3-1.7c-2-1.5-4.5-2.4-7.2-2.4s-5.2.9-7.2 2.4l1.8 2.4c1.5-1.1 3.4-1.8 5.4-1.8 1.8 0 3.4.5 4.8 1.4m-.3 9.2.7-2.8-2.2-1.9 2.9-.2 1.1-2.7 1.1 2.6 2.9.2-2.2 1.9.7 2.8-2.5-1.4z"/></svg>

<?xml version="1.0" encoding="UTF-8"?><!DOCTYPE svg PUBLIC "-//W3C//DTD SVG 1.1//EN" "http://www.w3.org/Graphics/SVG/1.1/DTD/svg11.dtd"><svg xmlns="http://www.w3.org/2000/svg" xmlns:xlink="http://www.w3.org/1999/xlink" version="1.1" id="mdi-wifi-star" width="24" height="24" viewBox="0 0 24 24"><path d="M12,6C8.6,6 5.5,7.1 3,9L1.2,6.6C4.2,4.3 8,3 12,3C16,3 19.8,4.3 22.8,6.6L21,9C18.5,7.1 15.4,6 12,6M13,19C13,17.7 13.4,16.4 14.2,15.4C13.5,15.2 12.8,15 12,15C10.7,15 9.4,15.5 8.4,16.2L12,21L13,19.6C13,19.4 13,19.2 13,19M16.8,13.4C17.1,13.3 17.5,13.2 17.9,13.1L19.2,11.4C17.2,9.9 14.7,9 12,9C9.3,9 6.8,9.9 4.8,11.4L6.6,13.8C8.1,12.7 10,12 12,12C13.8,12 15.4,12.5 16.8,13.4M16.5,22.6L17.2,19.8L15,17.9L17.9,17.7L19,15L20.1,17.6L23,17.8L20.8,19.7L21.5,22.5L19,21.1L16.5,22.6Z" /></svg>
